src/assets/images/tech/slack.svg

<svg width="32" height="32" viewBox="0 0 32 32" fill="none" xmlns="http://www.w3.org/2000/svg">
<g id="slack">
<g id="slack_2">
<path id="Vector" fill-rule="evenodd" clip-rule="evenodd" d="M11.7326 0C9.96372 0.00130479 8.53211 1.43396 8.53342 3.19935C8.53211 4.96473 9.96502 6.39739 11.7339 6.39869H14.9345V3.20065C14.9358 1.43527 13.5029 0.00260958 11.7326 0C11.7339 0 11.7339 0 11.7326 0ZM11.7326 8.53333H3.20053C1.43161 8.53463 -0.00130383 9.96729 3.57297e-06 11.7327C-0.00261123 13.4981 1.4303 14.9307 3.19922 14.9333H11.7326C13.5015 14.932 14.9345 13.4994 14.9332 11.734C14.9345 9.96729 13.5015 8.53463 11.7326 8.53333Z" fill="#36C5F0"/>
<path id="Vector_2" fill-rule="evenodd" clip-rule="evenodd" d="M31.9996 11.7327C32.0009 9.96729 30.568 8.53463 28.799 8.53333C27.0301 8.53463 25.5972 9.96729 25.5985 11.7327V14.9333H28.799C30.568 14.932 32.0009 13.4994 31.9996 11.7327ZM23.4661 11.7327V3.19935C23.4675 1.43527 22.0358 0.00260958 20.2669 0C18.498 0.00130479 17.0651 1.43396 17.0664 3.19935V11.7327C17.0638 13.4981 18.4967 14.9307 20.2656 14.9333C22.0345 14.932 23.4675 13.4994 23.4661 11.7327Z" fill="#2EB67D"/>
<path id="Vector_3" fill-rule="evenodd" clip-rule="evenodd" d="M20.2669 32.001C22.0358 31.9997 23.4688 30.5671 23.4674 28.8017C23.4688 27.0363 22.0358 25.6036 20.2669 25.6023H17.0664V28.8017C17.0651 30.5658 18.498 31.9984 20.2669 32.001ZM20.2669 23.4664H28.8003C30.5693 23.4651 32.0022 22.0324 32.0009 20.2671C32.0035 18.5017 30.5706 17.069 28.8017 17.0664H20.2682C18.4993 17.0677 17.0664 18.5004 17.0677 20.2658C17.0664 22.0324 18.498 23.4651 20.2669 23.4664Z" fill="#ECB22E"/>
<path id="Vector_4" fill-rule="evenodd" clip-rule="evenodd" d="M8.93953e-07 20.2658C-0.00130651 22.0311 1.43161 23.4638 3.20052 23.4651C4.96944 23.4638 6.40235 22.0311 6.40104 20.2658V17.0664H3.20052C1.43161 17.0677 -0.00130651 18.5004 8.93953e-07 20.2658ZM8.53342 20.2658V28.7991C8.5308 30.5645 9.96372 31.9971 11.7326 31.9997C13.5015 31.9984 14.9345 30.5658 14.9332 28.8004V20.2684C14.9358 18.503 13.5029 17.0703 11.7339 17.0677C9.96371 17.0677 8.53211 18.5004 8.53342 20.2658Z" fill="#E01E5A"/>
</g>
</g>
</svg>

<svg xmlns="http://www.w3.org/2000/svg" width="32" height="32" fill="none"><g fill-rule="evenodd" clip-rule="evenodd"><path fill="#36C5F0" d="M11.733 0a3.199 3.199 0 1 0 0 6.399h3.201V3.2A3.2 3.2 0 0 0 11.734 0m0 8.533H3.2a3.2 3.2 0 0 0-.002 6.4h8.534a3.2 3.2 0 1 0 0-6.4"/><path fill="#2EB67D" d="M32 11.733a3.2 3.2 0 0 0-6.401 0v3.2h3.2a3.2 3.2 0 0 0 3.2-3.2m-8.534 0V3.199a3.2 3.2 0 0 0-6.4 0v8.534a3.2 3.2 0 1 0 6.4 0"/><path fill="#ECB22E" d="M20.267 32.001a3.2 3.2 0 1 0 0-6.399h-3.2v3.2a3.2 3.2 0 0 0 3.2 3.199m0-8.535H28.8a3.2 3.2 0 0 0 .002-6.4h-8.534a3.2 3.2 0 0 0-.001 6.4"/><path fill="#E01E5A" d="M0 20.266a3.2 3.2 0 0 0 6.401 0v-3.2h-3.2A3.2 3.2 0 0 0 0 20.266m8.533 0v8.533a3.2 3.2 0 0 0 6.4.001v-8.532a3.2 3.2 0 0 0-6.4-.002"/></g></svg>
